packages/react-icons/icons/notification.svg

<svg width="24" height="24" viewBox="0 0 24 24" xmlns="http://www.w3.org/2000/svg">
<path fill-rule="evenodd" clip-rule="evenodd" d="M19.2902 17.04L18.0002 15.75V10.75C18.0002 7.68 16.3602 5.11 13.5002 4.43V3.75C13.5002 2.92 12.8302 2.25 12.0002 2.25C11.1702 2.25 10.5002 2.92 10.5002 3.75V4.43C7.63017 5.11 6.00017 7.67 6.00017 10.75V15.75L4.71017 17.04C4.08017 17.67 4.52017 18.75 5.41017 18.75H18.5802C19.4802 18.75 19.9202 17.67 19.2902 17.04ZM8.00017 16.75V10.75C8.00017 8.27 9.51017 6.25 12.0002 6.25C14.4902 6.25 16.0002 8.27 16.0002 10.75V16.75H8.00017ZM14.0002 19.75C14.0002 20.85 13.1002 21.75 12.0002 21.75C10.8902 21.75 10.0002 20.85 10.0002 19.75H14.0002Z" />
</svg>

<svg xmlns="http://www.w3.org/2000/svg" width="24" height="24"><path fill-rule="evenodd" d="M19.29 17.04 18 15.75v-5c0-3.07-1.64-5.64-4.5-6.32v-.68c0-.83-.67-1.5-1.5-1.5s-1.5.67-1.5 1.5v.68C7.63 5.11 6 7.67 6 10.75v5l-1.29 1.29c-.63.63-.19 1.71.7 1.71h13.17c.9 0 1.34-1.08.71-1.71ZM8 16.75v-6c0-2.48 1.51-4.5 4-4.5s4 2.02 4 4.5v6H8Zm6 3a2 2 0 1 1-4 0h4Z" clip-rule="evenodd"/></svg>
